X:197
T:Assassination. THO5.197, The
M:2/4
L:1/8
B:Thompson's Complete Collection of 200 Favourite Dances Vol.5
F:https://www.libraryofdance.org/manuals/1780c-Thompson-Compleat-5.pdf
Z:vmp. Peter Dunk 2024
Q:1/4=120
K:D
d2 ef|a/g/f/g/ e2|d/c/B/A/ Bc|d/c/d/e/ dA|
d2 ef|a/g/f/g/ e2|d/c/B/A/ Bc|d2 D2:|
|:affa|geeg|fe/f/ gf|e/d/c/B/ A/e/f/g/|
affa|geeg|{g/}fe/d/ B/d/c/e/|d2D2:|
W:
W:First Lady cast off two Couples, 2nd & 3rd Ladies
W:follow after and come up to their places ./.
W:the 3rd Gent do the same ./:
W:Lead down the middle, up again & cast off :/.
W:Allemand with your Partner :/:

